X:436
T:Texas Gallop
C:Bill Monroe
N:Transcribed By Mike Stangeland
R:bluegrass
L:1/8
Q:1/4=250
M:4/4
K:D
z8 |: D"D"E FG A2 F2 | "G"GF GA Bc d2 | "A7"AB cd e2 c2 | "D"dc dB AG FE | DE FG A2 F2 | 
"G"GF GA Bc d2 | "A7"AB cd e2 c2 |1 d2 [f2d2] [f4d4] :|2 d2 [f2d2] [f2d2] de | 
|: "D"f2 f2 "G"g2 g2 | "D"fa fe d2 B2 | "A7"A2 a/a/a/a/ a/a/a/a/ g2 | "D"fg fe d2 e2 | 
f2 f2 "G"g2 g2 | "D"fa fe d2 B2 | "A7"A2 a/a/a/a/ a/a/a/a/ b2 |1 a/a/"A7"a/a/ a/a/a/a/ a2 de :|2 a/a/"A7"a/a/ a/a/a/a/ a2 [a2A2] | 


